images_sukapura_svg/cmd/sc_dataprovider.svg

<svg viewBox="0 0 16 16" xmlns="http://www.w3.org/2000/svg" xmlns:xlink="http://www.w3.org/1999/xlink"><linearGradient id="a" gradientUnits="userSpaceOnUse" x1="80" x2="80" y1="3" y2="-1"><stop offset="0" stop-color="#0040dd"/><stop offset="1" stop-color="#0a84ff"/></linearGradient><path d="m3 1v14h4.2636719 5.7363281v-11.2949219l-2.695312-2.7050781z" fill="#fff"/><path d="m3 0c-.554 0-1 .446-1 1v7.5.5 6c0 .554.446 1 1 1h1 1 1 .9726562 1 .0546876 1 .9726562 1 1 1c.554 0 1-.446 1-1v-8.3925781-.6074219-1.5-.8632812l-3.636719-3.6367188h-.863281zm0 1h6v3.5c0 .277.223.5.5.5h3.5v10h-4.2636719-1.4726562-4.2636719v-6-.5-2.5-1zm7 0 3 3h-3z" fill="#98989d"/><path d="m4 5v11h9c.554 0 1-.446 1-1v-8.3925781-.6074219-1z" fill="#fff" fill-opacity=".784314"/><path d="m6.0000004 9c-.554 0-1 .446-1 1v5c0 .554.446 1 1 1h2 1.9726562 1.0546874 1.972656 2c.554 0 1-.446 1-1v-5c0-.554-.446-1-1-1h-1-1-1.392578-2.2148435-1.3925781-1z" fill="#98989d"/><path d="m6.0000004 7v2h3.3925781.6074215v-2h-2.349609zm4.9999996 0v2h.607422 3.392578v-2h-1.65039zm-4.9999996 3v2h3.9726562.027343v-.5-1.5h-.214843zm4.9999996 0v1.5.5h.02734 3.972656v-2h-3.785152zm-4.9999996 3v2h3.9726562.027343v-2h-.027343zm4.9999996 0v2h.02734 3.972656v-2h-3.972656z" fill="#fff"/><path d="m5.0000004 6v4h5.9999996.214844 3.785156 1v-3.9726562-.0273438h-1zm9.9999996.2285156v.00781h-.02148c.0073-.00213.01415-.00571.02148-.00781zm-8.9999996.7714844h3.9999996v2h-3.9999996zm4.9999996 0h2 .355469 1.644531v2h-3.390625-.609375z" fill="url(#a)"/></svg>

<?xml version="1.0" encoding="UTF-8" standalone="no"?>
<svg
   xmlns:dc="http://purl.org/dc/elements/1.1/"
   xmlns:cc="http://creativecommons.org/ns#"
   xmlns:rdf="http://www.w3.org/1999/02/22-rdf-syntax-ns#"
   xmlns:svg="http://www.w3.org/2000/svg"
   xmlns="http://www.w3.org/2000/svg"
   xmlns:sodipodi="http://sodipodi.sourceforge.net/DTD/sodipodi-0.dtd"
   xmlns:inkscape="http://www.inkscape.org/namespaces/inkscape"
   viewBox="0 0 16 16"
   version="1.1"
   id="svg38"
   sodipodi:docname="sc_dataprovider.svg"
   inkscape:version="0.92.4 (unknown)">
  <metadata
     id="metadata44">
    <rdf:RDF>
      <cc:Work
         rdf:about="">
        <dc:format>image/svg+xml</dc:format>
        <dc:type
           rdf:resource="http://purl.org/dc/dcmitype/StillImage" />
        <dc:title></dc:title>
      </cc:Work>
    </rdf:RDF>
  </metadata>
  <defs
     id="defs42" />
  <sodipodi:namedview
     pagecolor="#ffffff"
     bordercolor="#666666"
     borderopacity="1"
     objecttolerance="10"
     gridtolerance="10"
     guidetolerance="10"
     inkscape:pageopacity="0"
     inkscape:pageshadow="2"
     inkscape:window-width="1360"
     inkscape:window-height="714"
     id="namedview40"
     showgrid="true"
     inkscape:pagecheckerboard="true"
     inkscape:zoom="20.85965"
     inkscape:cx="8.425765"
     inkscape:cy="4.0277571"
     inkscape:window-x="0"
     inkscape:window-y="28"
     inkscape:window-maximized="1"
     inkscape:current-layer="svg38">
    <inkscape:grid
       type="xygrid"
       id="grid851" />
  </sodipodi:namedview>
  <linearGradient
     id="a"
     gradientUnits="userSpaceOnUse"
     x1="-19.24444"
     x2="-19.24444"
     y1="5.428188"
     y2="-3.571812">
    <stop
       offset="0"
       stop-color="#2a9240"
       id="stop2" />
    <stop
       offset="1"
       stop-color="#32d74b"
       id="stop4" />
  </linearGradient>
  <linearGradient
     id="b"
     gradientUnits="userSpaceOnUse"
     x1="75"
     x2="75"
     y1="3"
     y2="-1"
     gradientTransform="translate(5.0000004)">
    <stop
       offset="0"
       stop-color="#0040dd"
       id="stop7" />
    <stop
       offset="1"
       stop-color="#0a84ff"
       id="stop9" />
  </linearGradient>
  <path
     d="m3 1v14h4.2636719 5.7363281v-11.2949219l-2.695312-2.7050781z"
     fill="#fff"
     id="path12" />
  <path
     d="M 3 0 C 2.446 0 2 0.446 2 1 L 2 8.5 L 2 9 L 2 15 C 2 15.554 2.446 16 3 16 L 4 16 L 5 16 L 6 16 L 6.9726562 16 L 7.9726562 16 L 8.0273438 16 L 9.0273438 16 L 10 16 L 11 16 L 12 16 L 13 16 C 13.554 16 14 15.554 14 15 L 14 6.6074219 L 14 6 L 14 4.5 L 14 3.6367188 L 10.363281 0 L 9.5 0 L 3 0 z M 3 1 L 9 1 L 9 4.5 C 9 4.777 9.223 5 9.5 5 L 13 5 L 13 15 L 8.7363281 15 L 7.2636719 15 L 3 15 L 3 9 L 3 8.5 L 3 6 L 3 5 L 3 1 z M 10 1 L 13 4 L 10 4 L 10 1 z "
     id="path14"
     style="fill:#98989d;fill-opacity:1" />
  <path
     style="stroke:none;fill:#ffffff;fill-opacity:0.78431374"
     d="M 4 5 L 4 16 L 13 16 C 13.554 16 14 15.554 14 15 L 14 6.6074219 L 14 6 L 14 5 L 4 5 z "
     id="path861" />
  <path
     d="m 6.0000004,9 c -0.554,0 -1,0.446 -1,1 v 5 c 0,0.554 0.446,1 1,1 h 2 H 9.9726566 11.027344 13 15 c 0.554,0 1,-0.446 1,-1 V 10 C 16,9.446 15.554,9 15,9 h -1 -1 -1.392578 -2.2148435 -1.3925781 -1 z"
     id="path16"
     inkscape:connector-curvature="0"
     style="fill:#98989d" />
  <path
     d="M 6.0000004,7 V 9 H 9.3925785 10 V 7 H 7.650391 Z M 11,7 V 9 H 11.607422 15 V 7 h -1.65039 z m -4.9999996,3 v 2 h 3.9726562 0.027343 V 11.5 10 H 9.7851566 Z M 11,10 v 1.5 0.5 h 0.02734 3.972656 v -2 h -3.785152 z m -4.9999996,3 v 2 h 3.9726562 0.027343 V 13 H 9.9726566 Z M 11,13 v 2 h 0.02734 3.972656 V 13 H 11.02734 Z"
     id="path18"
     inkscape:connector-curvature="0"
     style="fill:#ffffff" />
  <path
     d="m 5.0000004,6 v 4 H 11 11.214844 15 16 V 6.0273438 6 H 15 Z M 15,6.2285156 v 0.00781 h -0.02148 c 0.0073,-0.00213 0.01415,-0.00571 0.02148,-0.00781 z M 6.0000004,7 H 10 V 9 H 6.0000004 Z M 11,7 H 13 13.355469 15 V 9 H 11.609375 11 Z"
     id="path20"
     style="fill:url(#b)"
     inkscape:connector-curvature="0" />
</svg>
